modules/boxicons-solid/icons/table.svg

<svg xmlns="http://www.w3.org/2000/svg" width="24" height="24" viewBox="0 0 24 24"><path d="M21,4H3C2.447,4,2,4.448,2,5v14c0,0.552,0.447,1,1,1h18c0.553,0,1-0.448,1-1V5C22,4.448,21.553,4,21,4z M10,13v-3h4v3H10z M14,15v3h-4v-3H14z M8,10v3H4v-3H8z M16,10h4v3h-4V10z M4,15h4v3H4V15z M16,18v-3h4v3H16z"/></svg>

<svg xmlns="http://www.w3.org/2000/svg" width="24" height="24" viewBox="0 0 24 24"><path d="M21 4H3a1 1 0 0 0-1 1v14a1 1 0 0 0 1 1h18a1 1 0 0 0 1-1V5a1 1 0 0 0-1-1zm-11 9v-3h4v3h-4zm4 2v3h-4v-3h4zm-6-5v3H4v-3h4zm8 0h4v3h-4v-3zM4 15h4v3H4v-3zm12 3v-3h4v3h-4z"/></svg>
